X:21
T:Kringpolska
R:polska J
H:efter Carl Sved, Delsbo
A:H\"alsingland
Z:id:hn-jp-21
M:3/4
L:1/16
K:Am
A2^GA (3BcBAB c3B | A2c2 e2ce a4 | [e4E4] [E4A,4] c3c- |
(3cdcBA B6A2- | A2cB A2Bd c3B | {cd}c2eg {^fg}^f3e d3c |
{Bc}B3A ^G3A {Bc}B2^G2 |1  A4 Ac3 E4 :|2  A4 A6A2- || 
K:Em
A3c e4 f4 |: {a}g4 (3gagf2 g4 | {fg}f2e2 eb3 g4 |
{fg}f2e2 d4 {fg}f2d2 | e4 e2g2 [B4-F4-] | [B4F4] e4 f4 |
{a}g4 (3gagf2 g4 | {fg}f2e2 eb3 g4 | {fg}f2e2 d3e {fg}f2d2 | 
[1 e4 e4 [B4F4] | [B4F4] e4 f4 :|2  e4 e6e2- || 
K:Am
|: e2^f^g a2^f2 =g3e | d2e^f g2e2 c4 | B2A2 A4 c4 | B2A2 B6A2- |
A2cB A2Bd c3B | {cd}c2eg {^fg}^f3e d3c | {Bc}B3A ^G3A {Bc}B3^G |
[1 ^GA3 A6e2- :|2  ^GA3 A8 ||
